X:1
T:C major Daniel Read, 1807
T:Isaac Watts, 1709 (Psalm 95)  88. 88. (L. M.)
T:Gardiner No copyright. Transcribed from the Columbian Harmonist, 1807.
%%score [ 1 2 3 4 ]
L:1/8
M:4/4
K:C
V:1 treble nm="Treble" snm="Tr."
V:2 treble nm="Counter" snm="C."
V:3 treble-8 nm="Tenor" snm="T."
V:4 bass nm="Bass" snm="B."
V:1
 G8 | c2 c2 c2 d2 | c4 B4 | c6 e2 | (d2 c2) (B2 A2) | G6 G2 | d4 d4 | d8 | z4 c4 | e2 d2 e2 g2 | %10
w: 1.~Come,|let our voi- ces|join to|raise A|sac- * red *|song of|sol- emn|praise;|God|is a sove- reign|
 e6 d2 | c6 c2 | B4 B4 | c2 c2 e2 d2 | d8 | z4 c4 | e2 e2 d2 d2 | c6 d2 | e6 d2 | c4 c4 | %20
w: King; re-|hearse His|hon- ors|in ex- al- ted|verse.|Come,|let our souls ad-|dress the|Lord, Who|framed our|
 B2 G2 B2 [Bd]2 | c8 | z4 c4 | B2 Bc d2 [ce]2 | e6 c2 | B6 c2 | e2 e2 e2 d2 | c4 B4 | c8 |] %29
w: na- tures with His|word;|He|is our * Shep- herd,|we His|sheep; His|mer- cies chose, His|pas- tures|keep.|
V:2
 G8 | G2 G2 G2 GF | E4 G4 | G6 G2 | G4 G4 | G6 E2 | ^F4 F4 | G8 | z4 G4 | G2 G2 c2 [GB]2 | %10
w: 2.~Come,|let us hear His *|voice to-|day, The|coun- sels|of His|love o-|bey;|Not|let our har- dened|
 [Gc]6 G2 | G6 G2 | G4 G4 | G2 G2 c2 B2 | B8 | z4 E4 | G2 G2 G2 G2 | G6 G2 | G6 G2 | E4 C4 | %20
w: hearts re-|new The|sins and|plagues that Is- rael|knew.|Is-|rael, that saw His|works of|grace, Yet|tempt their|
 G2 G2 G2 G2 | G8 | z4 G4 | G2 G2 G2 G2 | A6 G2 | G6 A2 | G2 G2 G2 A2 | G4 (G2 F2) | E8 |] %29
w: Ma- ker to His|face;|A|faith- less, un- be-|lie- ving|brood, That|tired the pa- tience|of their *|God.|
V:3
 c8 | c2 G2 A2 G2 | c4 d4 | e6 c2 | d4 d4 | d6 e2 | (d2 c2) (B2 A2) | G8 | z4 G4 | c2 B2 c2 d2 | %10
w: 3.~Look|back, my soul, with|ho- ly|dread, And|view those|an- cient|reb- * els *|dead;|Atl-|tend the of- fered|
 c6 d2 | e6 c2 | d4 d4 | cd ef g2 ^f2 | g8 | z4 e4 | c2 e2 g2 g2 | e6 d2 | c6 B2 | c4 d4 | %20
w: grace to-|day, Nor|lose the|bles- * sing * by de-|lay.|Sieze|the kind pro- mise|while it|waits, And|march to|
 d2 d2 d2{de} f2 | e8 | z4 c4 | d2 dc B2 G2 | c6 e2 | d6 f2 | e2 g2 g2 f2 | e4 d4 | c8 |] %29
w: Zi- on's heav'n- ly|gates;|Be-|lieve, and * take the|pro- mised|rest; O-|bey, and be for|ev- er|blest.|
V:4
 C,8 | C,2 C,2 C,2 G,2 | A,4 G,4 | [C,C]6 C,2 | G,4 G,4 | G,6 C,2 | D,4 D,4 | G,,8 | z4 C,4 | %9
 C,2 G,2 A,2 G,2 | C,6 [G,,G,]2 | [C,C]6 C,2 | G,4 G,4 | C2 C2 C2 D2 | G,8 | z4 [C,C]4 | %16
 [C,C]2 [C,C]2 G,2 G,2 | [C,C]6 [G,,G,]2 | E,6 G,2 | C,4 C,4 | G,2 G,2 G,2 A,B, | C8 | z4 C,4 | %23
 G,2 G,2 G,2 E,2 | A,6 C2 | G,6 F,2 | C2 C2 C2 F,2 | G,4 [G,,G,]4 | C,8 |] %29

